svg/300/sharp/important_devices.svg

<svg xmlns="http://www.w3.org/2000/svg" width="48" height="48" viewBox="0 -960 960 960"><path d="M633.846-140.001v-386.691h226.153v386.691H633.846Zm35.384-60.77h155.384v-265.151H669.23v265.151Zm-346.153 60.77v-45.384h94.231v-114.616H100.001v-519.998h679.998v227.922h-45.384v-182.538h-589.23v429.23h423.076v45.384H462.692v114.616h94.231v45.384H323.077Zm38.462-289L440-490.539l78.461 61.538-28.692-98.692 79.461-64.384h-98.815L440-686.461l-30.415 94.384H310.77l79.461 64.384-28.692 98.692ZM440.615-560Z"/></svg>

<svg xmlns="http://www.w3.org/2000/svg" width="48" height="48" viewBox="0 -960 960 960"><path d="M633.85-140v-386.69H860V-140H633.85Zm35.38-60.77h155.38v-265.15H669.23v265.15ZM323.08-140v-45.39h94.23V-300H100v-520h680v227.92h-45.39v-182.53H145.39v429.22h423.07V-300H462.69v114.61h94.23V-140H323.08Zm38.46-289L440-490.54 518.46-429l-28.69-98.69 79.46-64.39h-98.81L440-686.46l-30.42 94.38h-98.81l79.46 64.39L361.54-429Zm79.08-131Z"/></svg>
